images/services/4.svg

<svg width="37" height="37" viewBox="0 0 37 37" fill="none" xmlns="http://www.w3.org/2000/svg">
<path d="M14.2296 36.2657C15.187 36.2657 15.9631 35.4896 15.9631 34.5322C15.9631 33.5748 15.187 32.7987 14.2296 32.7987C13.2722 32.7987 12.4961 33.5748 12.4961 34.5322C12.4961 35.4896 13.2722 36.2657 14.2296 36.2657Z" fill="#FFC94F"/>
<path d="M3.03401 32.3652C4.31054 32.3652 5.34537 31.3304 5.34537 30.0539C5.34537 28.7774 4.31054 27.7425 3.03401 27.7425C1.75748 27.7425 0.722656 28.7774 0.722656 30.0539C0.722656 31.3304 1.75748 32.3652 3.03401 32.3652Z" fill="#FFC94F"/>
<path d="M33.9666 19.9418C35.2432 19.9418 36.278 18.9069 36.278 17.6304C36.278 16.3539 35.2432 15.3191 33.9666 15.3191C32.6901 15.3191 31.6553 16.3539 31.6553 17.6304C31.6553 18.9069 32.6901 19.9418 33.9666 19.9418Z" fill="#FFC94F"/>
<path d="M5.42952 20.5196C6.70604 20.5196 7.74087 19.4847 7.74087 18.2082C7.74087 16.9317 6.70604 15.8969 5.42952 15.8969C4.15299 15.8969 3.11816 16.9317 3.11816 18.2082C3.11816 19.4847 4.15299 20.5196 5.42952 20.5196Z" fill="#FFC94F"/>
<path d="M24.6066 16.6122C25.564 16.6122 26.3401 15.836 26.3401 14.8786C26.3401 13.9212 25.564 13.1451 24.6066 13.1451C23.6492 13.1451 22.873 13.9212 22.873 14.8786C22.873 15.836 23.6492 16.6122 24.6066 16.6122Z" fill="#FFC94F"/>
<path d="M13.1886 13.1451C14.146 13.1451 14.9221 12.369 14.9221 11.4116C14.9221 10.4542 14.146 9.6781 13.1886 9.6781C12.2312 9.6781 11.4551 10.4542 11.4551 11.4116C11.4551 12.369 12.2312 13.1451 13.1886 13.1451Z" fill="#FFC94F"/>
<path d="M30.993 32.3652C32.2695 32.3652 33.3044 31.3304 33.3044 30.0539C33.3044 28.7774 32.2695 27.7425 30.993 27.7425C29.7165 27.7425 28.6816 28.7774 28.6816 30.0539C28.6816 31.3304 29.7165 32.3652 30.993 32.3652Z" fill="#FFC94F"/>
<path d="M18.5004 27.0203C20.2556 27.0203 21.6785 25.5974 21.6785 23.8422C21.6785 22.087 20.2556 20.6641 18.5004 20.6641C16.7452 20.6641 15.3223 22.087 15.3223 23.8422C15.3223 25.5974 16.7452 27.0203 18.5004 27.0203Z" fill="#FFC94F"/>
<path d="M3.03365 27.0203C1.36088 27.0203 0 28.3812 0 30.0539C0 31.7267 1.36088 33.0876 3.03365 33.0876C4.70642 33.0876 6.0673 31.7267 6.0673 30.0539C6.0673 28.3812 4.70642 27.0203 3.03365 27.0203ZM3.03365 31.643C2.15743 31.643 1.4446 30.9302 1.4446 30.0539C1.4446 29.1777 2.15743 28.4649 3.03365 28.4649C3.90987 28.4649 4.62271 29.1777 4.62271 30.0539C4.62271 30.9302 3.90987 31.643 3.03365 31.643Z" fill="#535353"/>
<path d="M33.9662 20.6641C35.6389 20.6641 36.9998 19.3032 36.9998 17.6304C36.9998 15.9576 35.6389 14.5968 33.9662 14.5968C32.2934 14.5968 30.9325 15.9576 30.9325 17.6304C30.9325 17.7756 30.9434 17.9183 30.9632 18.0582L21.7853 21.7443C21.6319 21.5049 21.454 21.2827 21.2536 21.0828L23.8815 17.2253C24.1107 17.2962 24.354 17.3345 24.6061 17.3345C25.9603 17.3345 27.0619 16.2328 27.0619 14.8787C27.0619 13.5245 25.9603 12.4229 24.6061 12.4229C23.2519 12.4229 22.1503 13.5245 22.1503 14.8787C22.1503 15.4577 22.3522 15.9901 22.6886 16.4105L20.0603 20.2686C19.7949 20.1522 19.5142 20.0649 19.2221 20.01V0.728646C19.2221 0.32972 18.8986 0.00634766 18.4998 0.00634766C18.1009 0.00634766 17.7775 0.32972 17.7775 0.728646V20.0099C17.7726 20.0108 17.7677 20.0115 17.7628 20.0125L14.7939 13.2672C15.314 12.8166 15.6439 12.1521 15.6439 11.4116C15.6439 10.0574 14.5423 8.95576 13.1881 8.95576C11.8339 8.95576 10.7323 10.0574 10.7323 11.4116C10.7323 12.7657 11.8339 13.8674 13.1881 13.8674C13.2843 13.8674 13.379 13.8612 13.4724 13.8504L16.4191 20.5455C15.9627 20.8347 15.5694 21.2151 15.267 21.6621L8.42041 18.711C8.44779 18.5473 8.46281 18.3795 8.46281 18.2082C8.46281 16.5354 7.10193 15.1745 5.42916 15.1745C3.75639 15.1745 2.39551 16.5354 2.39551 18.2082C2.39551 19.881 3.75639 21.2418 5.42916 21.2418C6.41553 21.2418 7.29312 20.7684 7.84756 20.0371L14.6947 22.9885C14.633 23.2634 14.5994 23.5489 14.5994 23.8421C14.5994 24.1016 14.6254 24.3549 14.6739 24.6003L10.9296 26.1041C10.5594 26.2528 10.3799 26.6734 10.5285 27.0436C10.6417 27.3255 10.9126 27.4969 11.1989 27.4969C11.2885 27.4969 11.3797 27.4801 11.4679 27.4446L15.2142 25.94C15.5208 26.4185 15.9287 26.8257 16.4078 27.1314L14.4289 32.085C14.3628 32.0797 14.2964 32.0762 14.2291 32.0762C12.8749 32.0762 11.7732 33.1779 11.7732 34.532C11.7732 35.8862 12.8749 36.9879 14.2291 36.9879C15.5832 36.9879 16.6849 35.8862 16.6849 34.532C16.6849 33.7611 16.3275 33.0723 15.77 32.6218L17.7486 27.6691C17.9918 27.7168 18.2428 27.7424 18.4998 27.7424C19.7676 27.7424 20.8956 27.1341 21.6085 26.1944L28.0333 29.389C27.9852 29.6031 27.959 29.8254 27.959 30.0538C27.959 31.7266 29.3199 33.0874 30.9927 33.0874C32.6654 33.0874 34.0263 31.7266 34.0263 30.0538C34.0263 28.381 32.6654 27.0201 30.9927 27.0201C30.0655 27.0201 29.2347 27.4386 28.6778 28.0961L22.2529 24.9015C22.3481 24.5644 22.4003 24.2093 22.4003 23.8421C22.4003 23.5827 22.3743 23.3293 22.3257 23.0839L31.5031 19.398C32.0542 20.1639 32.9526 20.6641 33.9662 20.6641ZM24.6061 13.8674C25.1637 13.8674 25.6173 14.321 25.6173 14.8786C25.6173 15.4362 25.1637 15.8898 24.6061 15.8898C24.0485 15.8898 23.5949 15.4362 23.5949 14.8786C23.5949 14.321 24.0485 13.8674 24.6061 13.8674ZM12.1769 11.4116C12.1769 10.854 12.6305 10.4004 13.1881 10.4004C13.7457 10.4004 14.1993 10.854 14.1993 11.4116C14.1993 11.9692 13.7457 12.4228 13.1881 12.4228C12.6305 12.4228 12.1769 11.9692 12.1769 11.4116ZM5.42916 19.7973C4.55294 19.7973 3.8401 19.0845 3.8401 18.2083C3.8401 17.332 4.55294 16.6192 5.42916 16.6192C6.30538 16.6192 7.01822 17.332 7.01822 18.2083C7.01822 19.0845 6.30538 19.7973 5.42916 19.7973ZM14.2291 35.5434C13.6714 35.5434 13.2178 35.0898 13.2178 34.5322C13.2178 33.9746 13.6714 33.521 14.2291 33.521C14.7867 33.521 15.2403 33.9746 15.2403 34.5322C15.2403 35.0898 14.7867 35.5434 14.2291 35.5434ZM30.9926 28.4649C31.8688 28.4649 32.5816 29.1777 32.5816 30.0539C32.5816 30.9302 31.8688 31.643 30.9926 31.643C30.1164 31.643 29.4035 30.9302 29.4035 30.0539C29.4035 29.1777 30.1164 28.4649 30.9926 28.4649ZM18.4998 26.298C17.1456 26.298 16.044 25.1963 16.044 23.8422C16.044 22.488 17.1456 21.3864 18.4998 21.3864C19.854 21.3864 20.9556 22.488 20.9556 23.8422C20.9556 25.1963 19.854 26.298 18.4998 26.298ZM33.9662 16.0414C34.8424 16.0414 35.5552 16.7542 35.5552 17.6304C35.5552 18.5066 34.8424 19.2195 33.9662 19.2195C33.0899 19.2195 32.3771 18.5066 32.3771 17.6304C32.3771 16.7542 33.0899 16.0414 33.9662 16.0414Z" fill="#535353"/>
<path d="M8.19984 27.2666C8.00987 27.2666 7.82352 27.3439 7.68924 27.4782C7.55417 27.6126 7.47754 27.7982 7.47754 27.9889C7.47754 28.1788 7.55417 28.3652 7.68924 28.4995C7.82352 28.6339 8.00922 28.7112 8.19984 28.7112C8.3898 28.7112 8.57616 28.6339 8.7105 28.4995C8.84485 28.3652 8.92214 28.1788 8.92214 27.9889C8.92214 27.7982 8.84492 27.6126 8.7105 27.4782C8.57608 27.3439 8.38973 27.2666 8.19984 27.2666Z" fill="#535353"/>
</svg>

<svg width="37" height="37" fill="none" xmlns="http://www.w3.org/2000/svg"><path d="M14.23 36.266a1.733 1.733 0 1 0 0-3.467 1.733 1.733 0 0 0 0 3.467ZM3.034 32.365a2.311 2.311 0 1 0 0-4.622 2.311 2.311 0 0 0 0 4.622ZM33.967 19.942a2.311 2.311 0 1 0 0-4.623 2.311 2.311 0 0 0 0 4.623ZM5.43 20.52a2.311 2.311 0 1 0 0-4.623 2.311 2.311 0 0 0 0 4.623ZM24.607 16.612a1.734 1.734 0 1 0 0-3.467 1.734 1.734 0 0 0 0 3.467ZM13.189 13.145a1.733 1.733 0 1 0 0-3.467 1.733 1.733 0 0 0 0 3.467ZM30.993 32.365a2.311 2.311 0 1 0 0-4.623 2.311 2.311 0 0 0 0 4.623ZM18.5 27.02a3.178 3.178 0 1 0 0-6.356 3.178 3.178 0 0 0 0 6.356Z" fill="#FFC94F"/><path d="M3.034 27.02A3.037 3.037 0 0 0 0 30.054a3.037 3.037 0 0 0 3.034 3.034 3.037 3.037 0 0 0 3.033-3.034 3.037 3.037 0 0 0-3.033-3.034Zm0 4.623a1.59 1.59 0 0 1-1.59-1.59 1.59 1.59 0 0 1 1.59-1.588c.876 0 1.589.713 1.589 1.589a1.59 1.59 0 0 1-1.59 1.589ZM33.966 20.664A3.037 3.037 0 0 0 37 17.63a3.037 3.037 0 0 0-3.034-3.033 3.037 3.037 0 0 0-3.003 3.461l-9.178 3.686a3.923 3.923 0 0 0-.531-.661l2.627-3.858a2.459 2.459 0 0 0 3.18-2.347 2.458 2.458 0 0 0-2.455-2.455 2.458 2.458 0 0 0-2.456 2.456c0 .579.202 1.111.539 1.531L20.06 20.27a3.861 3.861 0 0 0-.838-.259V.729a.722.722 0 0 0-1.445 0v19.28c-.004.002-.01.003-.014.003l-2.97-6.745c.521-.45.85-1.115.85-1.855a2.459 2.459 0 0 0-2.455-2.456 2.459 2.459 0 0 0-2.456 2.456 2.459 2.459 0 0 0 2.74 2.438l2.947 6.696c-.456.289-.85.67-1.152 1.116L8.42 18.711a3.037 3.037 0 0 0-2.991-3.536 3.037 3.037 0 0 0-3.033 3.033 3.037 3.037 0 0 0 3.033 3.034 3.03 3.03 0 0 0 2.419-1.205l6.847 2.951a3.893 3.893 0 0 0-.021 1.612l-3.744 1.504a.722.722 0 0 0 .538 1.34l3.746-1.504c.307.479.715.886 1.194 1.191l-1.98 4.954a2.459 2.459 0 0 0-2.656 2.447 2.459 2.459 0 0 0 2.457 2.456 2.459 2.459 0 0 0 2.456-2.456c0-.77-.357-1.46-.915-1.91l1.979-4.953a3.896 3.896 0 0 0 3.86-1.475l6.424 3.195a3.037 3.037 0 0 0 2.96 3.698 3.037 3.037 0 0 0 3.033-3.033 3.037 3.037 0 0 0-3.033-3.034c-.927 0-1.758.419-2.315 1.076l-6.425-3.195a3.892 3.892 0 0 0 .073-1.817l9.177-3.686a3.03 3.03 0 0 0 2.463 1.266Zm-9.36-6.797a1.012 1.012 0 0 1 0 2.023 1.012 1.012 0 0 1 0-2.023Zm-12.43-2.455a1.012 1.012 0 0 1 2.023 0 1.012 1.012 0 0 1-2.022 0ZM5.43 19.797a1.59 1.59 0 0 1-1.589-1.589c0-.876.713-1.589 1.59-1.589.875 0 1.588.713 1.588 1.59a1.59 1.59 0 0 1-1.589 1.588Zm8.8 15.746a1.012 1.012 0 0 1 0-2.022 1.012 1.012 0 0 1 0 2.022Zm16.764-7.078a1.59 1.59 0 0 1 1.589 1.589 1.59 1.59 0 0 1-1.59 1.589 1.59 1.59 0 0 1-1.588-1.59 1.59 1.59 0 0 1 1.589-1.588ZM18.5 26.298a2.459 2.459 0 0 1-2.456-2.456 2.458 2.458 0 0 1 2.456-2.456 2.458 2.458 0 0 1 2.456 2.456 2.459 2.459 0 0 1-2.456 2.456Zm15.466-10.257a1.59 1.59 0 0 1 1.59 1.59 1.59 1.59 0 0 1-1.59 1.588 1.59 1.59 0 0 1-1.589-1.589 1.59 1.59 0 0 1 1.59-1.589Z" fill="#535353"/><path d="M8.2 27.267a.724.724 0 0 0 0 1.445.728.728 0 0 0 .722-.722.726.726 0 0 0-.722-.723Z" fill="#535353"/></svg>
